svgs/sharp-light/torii-gate.svg

<svg xmlns="http://www.w3.org/2000/svg" viewBox="0 0 512 512"><!--! Font Awesome Pro 6.6.0 by @fontawesome - https://fontawesome.com License - https://fontawesome.com/license (Commercial License) Copyright 2024 Fonticons, Inc. --><path d="M416 64l5.2 0 4.9-1.6 53.9-18 0 67.6-42.7 32L272 144l-32 0L74.7 144 32 112l0-67.6 53.9 18L90.8 64 96 64l320 0zM240 176l0 80L96 256l0-80 144 0zM64 288l0 208 0 16 32 0 0-16 0-208 160 0 160 0 0 208 0 16 32 0 0-16 0-208 48 0 16 0 0-32-16 0-48 0 0-80 64-48 0-94.3L512 0 480 10.7 416 32 96 32 32 10.7 0 0 0 33.7 0 128l64 48 0 80-48 0L0 256l0 32 16 0 48 0zm352-32l-144 0 0-80 144 0 0 80z"/></svg>

<svg xmlns="http://www.w3.org/2000/svg" viewBox="0 0 512 512"><!--! Font Awesome Pro 6.4.0 by @fontawesome - https://fontawesome.com License - https://fontawesome.com/license (Commercial License) Copyright 2023 Fonticons, Inc. --><path d="M416 64h5.2l4.9-1.6 53.9-18V112l-42.7 32L272 144H240L74.7 144 32 112V44.4l53.9 18L90.8 64H96 416zM240 176v80L96 256V176H240zM64 288V496v16H96V496 288l160 0 160 0V496v16h32V496 288h48 16V256H496 448V176l64-48V33.7 0L480 10.7 416 32H96L32 10.7 0 0V33.7 128l64 48v80H16 0v32H16 64zm352-32l-144 0V176H416v80z"/></svg>
